!!!COM:	Mouton, Jean
!!!CDT: ~1459///-1522/10/30/
!!!COA2: Josquin des Prez
!!!CDT2: ~1450-1521/08/27
!!!OTL:	Confitemini Domino
!!!AGN:	Motet
!!!SCT:	NJE 15.9
!!!SCA:	New Josquin Edition 15.9
!!!voices:	6
!!!ONB: cross-listed Mou2032 and Jos1509
**kern	**silbe	**kern	**silbe	**kern	**silbe	**kern	**silbe	**kern	**silbe	**kern	**silbe
*staff6	*staff6	*staff5	*staff5	*staff4	*staff4	*staff3	*staff3	*staff2	*staff2	*staff1	*staff1
*Ivox	*	*Ivox	*	*Ivox	*	*Ivox	*	*Ivox	*	*Ivox	*
*I"Bassus2	*	*I"Bassus1	*	*I"Tenor2	*	*I"Tenor1	*	*I"Altus	*	*I"Cantus	*
*I'B2	*	*I'B1	*	*I'T2	*	*I'T1	*	*I'A	*	*I'C	*
*clefF4	*	*clefGv2	*	*clefGv2	*	*clefGv2	*	*clefGv2	*	*clefG2	*
*k[]	*	*k[]	*	*k[]	*	*k[]	*	*k[]	*	*k[]	*
*M2/1	*	*M2/1	*	*M2/1	*	*M2/1	*	*M2/1	*	*M2/1	*
*met(C|)	*	*met(C|)	*	*met(C|)	*	*met(C|)	*	*met(C|)	*	*met(C|)	*
!!incipit: 5
=1-	=1-	=1-	=1-	=1-	=1-	=1-	=1-	=1-	=1-	=1-	=1-
!	!	!	!	!	!	!LO:TX:Z=8:t=Canon. Prebis parae viam meam [canon at the lower fourth]	!	!	!	!	!
!!section: Confitemini domino
!!!OMD: Confitemini domino
0r	.	0E/	Con-	0r	.	0r	.	0r	.	0r	.
=2	=2	=2	=2	=2	=2	=2	=2	=2	=2	=2	=2
0r	.	1E/	-fi-	0r	.	0r	.	0r	.	0r	.
.	.	[1A/	-te-	.	.	.	.	.	.	.	.
=3	=3	=3	=3	=3	=3	=3	=3	=3	=3	=3	=3
0r	.	2A/]	.	0r	.	0r	.	0r	.	0r	.
.	.	2G/	-mi-	.	.	.	.	.	.	.	.
.	.	1G/	-ni	.	.	.	.	.	.	.	.
=4	=4	=4	=4	=4	=4	=4	=4	=4	=4	=4	=4
0r	.	1.A/	do-	0r	.	0r	.	0r	.	0e/	Con-
.	.	2B\	-mi-	.	.	.	.	.	.	.	.
=5	=5	=5	=5	=5	=5	=5	=5	=5	=5	=5	=5
0r	.	1.c\	-no	0r	.	0r	.	0r	.	1e/	-fi-
.	.	.	.	.	.	.	.	.	.	[1a/	-te-
.	.	2A/	quo-	.	.	.	.	.	.	.	.
=6	=6	=6	=6	=6	=6	=6	=6	=6	=6	=6	=6
0r	.	2c\	-ni-	0r	.	0r	.	0r	.	2a/]	.
.	.	2c\	-am	.	.	.	.	.	.	2g/	-mi-
.	.	1B\	bo-	.	.	.	.	.	.	1g/	-ni
=7	=7	=7	=7	=7	=7	=7	=7	=7	=7	=7	=7
0r	.	1A/	-nus	0r	.	0r	.	0r	.	1.a/	do-
.	.	2r	.	.	.	.	.	.	.	.	.
.	.	2d\	quo-	.	.	.	.	.	.	2b\	-mi-
=8	=8	=8	=8	=8	=8	=8	=8	=8	=8	=8	=8
0r	.	2c\	-ni-	0r	.	0r	.	0A/	Con-	1.cc\	-no
.	.	2A/	-am	.	.	.	.	.	.	.	.
.	.	2.c\	bo-	.	.	.	.	.	.	.	.
.	.	.	.	.	.	.	.	.	.	2a/	quo-
.	.	4d\	.	.	.	.	.	.	.	.	.
=9	=9	=9	=9	=9	=9	=9	=9	=9	=9	=9	=9
0r	.	1e\	-nus	0r	.	0r	.	1A/	-fi-	2cc\	-ni-
.	.	.	.	.	.	.	.	.	.	2cc\	-am
.	.	2r	.	.	.	.	.	[1d\	-te-	1b\	bo-
.	.	2G/	quo-	.	.	.	.	.	.	.	.
=10	=10	=10	=10	=10	=10	=10	=10	=10	=10	=10	=10
0r	.	4F/	-ni-	0r	.	0r	.	2d\]	.	1a/	-nus
.	.	4D/	.	.	.	.	.	.	.	.	.
.	.	2F/	-am	.	.	.	.	2c\	-mi-	.	.
.	.	1E/	bo-	.	.	.	.	1c\	-ni	2r	.
.	.	.	.	.	.	.	.	.	.	2g/	quo-
=11	=11	=11	=11	=11	=11	=11	=11	=11	=11	=11	=11
0r	.	1D/	-nus	0r	.	0r	.	1.d\	do-	2f/	-ni-
.	.	.	.	.	.	.	.	.	.	2d/	-am
.	.	2r	.	.	.	.	.	.	.	2f/	bo-
.	.	2G/	quo-	.	.	.	.	2e\	-mi-	2g/	.
=12	=12	=12	=12	=12	=12	=12	=12	=12	=12	=12	=12
0r	.	2F/	-ni-	0r	.	0r	.	1.f\	-no	1.a/	-nus
.	.	2D/	-am	.	.	.	.	.	.	.	.
.	.	2.F/	bo-	.	.	.	.	.	.	.	.
.	.	.	.	.	.	.	.	2d\	quo-	2b\	quo-
.	.	4G/	.	.	.	.	.	.	.	.	.
=13	=13	=13	=13	=13	=13	=13	=13	=13	=13	=13	=13
0r	.	0A/	-nus	0r	.	0r	.	2f\	-ni-	2cc\	.
.	.	.	.	.	.	.	.	2f\	-am	1dd\	.
.	.	.	.	.	.	.	.	1e\	bo-	.	.
.	.	.	.	.	.	.	.	.	.	2cc\	-ni-
=14	=14	=14	=14	=14	=14	=14	=14	=14	=14	=14	=14
0r	.	2r	.	0r	.	0r	.	1d\	-nus	1b\	-am
.	.	2G/	quo-	.	.	.	.	.	.	.	.
.	.	2F/	-ni-	.	.	.	.	2r	.	[1a/	bo-
.	.	2D/	-am	.	.	.	.	2d\	quo-	.	.
=15	=15	=15	=15	=15	=15	=15	=15	=15	=15	=15	=15
0AA/	Con-	4F/	bo-	0r	.	0r	.	2c\	-ni-	2a/]	.
.	.	4E/	.	.	.	.	.	.	.	.	.
.	.	4F/	.	.	.	.	.	2A/	-am	4g/	.
.	.	4G/	.	.	.	.	.	.	.	4f/	.
.	.	4A/	.	.	.	.	.	2.c\	bo-	1e/	-nus
.	.	4B\	.	.	.	.	.	.	.	.	.
.	.	[2c\	.	.	.	.	.	.	.	.	.
.	.	.	.	.	.	.	.	4d\	.	.	.
=16	=16	=16	=16	=16	=16	=16	=16	=16	=16	=16	=16
1AA/	-fi-	4c\]	.	0r	.	0r	.	1e\	-nus	1.a/	quo-
.	.	4B\	.	.	.	.	.	.	.	.	.
.	.	4A/	.	.	.	.	.	.	.	.	.
.	.	4G/	.	.	.	.	.	.	.	.	.
[1D\	-te-	2.F/	.	.	.	.	.	1f\	quo-	.	.
.	.	.	.	.	.	.	.	.	.	2g/	-ni-
.	.	4G/	.	.	.	.	.	.	.	.	.
=17	=17	=17	=17	=17	=17	=17	=17	=17	=17	=17	=17
2D\]	.	4A/	.	0r	.	0r	.	2d\	-ni-	2f/	-am
.	.	4B\	.	.	.	.	.	.	.	.	.
2C/	-mi-	2.c\	.	.	.	.	.	1g\	-am	4e/	.
.	.	.	.	.	.	.	.	.	.	4d/	.
1C/	-ni	.	.	.	.	.	.	.	.	1e/	bo-
.	.	4B\	.	.	.	.	.	.	.	.	.
.	.	2A/	.	.	.	.	.	4f\	.	.	.
.	.	.	.	.	.	.	.	4e\	.	.	.
=18	=18	=18	=18	=18	=18	=18	=18	=18	=18	=18	=18
1.D\	do-	1B\	.	0r	.	0r	.	1.f\	bo-	1d/	-nus
.	.	[1A/	-nus	.	.	.	.	.	.	2r	.
2E\	-mi-	.	.	.	.	.	.	4e\	.	2g/	quo-
.	.	.	.	.	.	.	.	4d\	.	.	.
=19	=19	=19	=19	=19	=19	=19	=19	=19	=19	=19	=19
1.F\	-no	0A/]	.	0r	.	0r	.	1c\	-nus	2.a/	.
.	.	.	.	.	.	.	.	.	.	4b\	-ni-
.	.	.	.	.	.	.	.	2r	.	1cc\	-am
2E\	quo-	.	.	.	.	.	.	[2f\	quo-	.	.
=20	=20	=20	=20	=20	=20	=20	=20	=20	=20	=20	=20
2D\	-ni-	1d\	quo-	0r	.	0r	.	4f\]	.	2b\	bo-
.	.	.	.	.	.	.	.	4d\	.	.	.
2F\	-am	.	.	.	.	.	.	2.d\	.	1a/	.
1E\	bo-	1G/	-ni-	.	.	.	.	.	.	.	.
.	.	.	.	.	.	.	.	4c#\i	.	.	.
.	.	.	.	.	.	.	.	4c#\i	-ni-	[2g/	.
.	.	.	.	.	.	.	.	4B\	.	.	.
=21	=21	=21	=21	=21	=21	=21	=21	=21	=21	=21	=21
0D\	-nus	0A/	-am	0r	.	0r	.	1.d\	-am	2g/]	.
.	.	.	.	.	.	.	.	.	.	4f#/i	.
.	.	.	.	.	.	.	.	.	.	4e/	.
.	.	.	.	.	.	.	.	.	.	1f#/i	.
.	.	.	.	.	.	.	.	2c\	.	.	.
=22	=22	=22	=22	=22	=22	=22	=22	=22	=22	=22	=22
1r	.	1G/	bo-	0r	.	[0d\	Per	1B\	.	1g/	-nus
[1D\	quo-	2F/	.	.	.	.	.	2A/	bo-	1a/	.
.	.	[2A/	.	.	.	.	.	[2f\	.	.	.
=23	=23	=23	=23	=23	=23	=23	=23	=23	=23	=23	=23
1D\]	.	4A/]	.	[0A/	Per	0d\]	.	4f\]	.	0f/	.
.	.	4G/	.	.	.	.	.	4e\	.	.	.
.	.	4F/	.	.	.	.	.	4d\	.	.	.
.	.	4E/	.	.	.	.	.	4c\	.	.	.
1D\	-ni-	1F/	-nus	.	.	.	.	1d\	.	.	.
=24	=24	=24	=24	=24	=24	=24	=24	=24	=24	=24	=24
1.AA/	-am	1r	.	0A/]	.	[0c\	sin-	0e\	-nus	1.cc\	quo-
.	.	[1E/	quo-	.	.	.	.	.	.	.	.
2AA/	in	.	.	.	.	.	.	.	.	2cc\	-ni-
=25	=25	=25	=25	=25	=25	=25	=25	=25	=25	=25	=25
1C/	se-	2E/]	.	[0G/	sin-	0c\]	.	1.e\	quo-	1cc\	-am
.	.	2E/	-ni-	.	.	.	.	.	.	.	.
1C/	-cu-	1E/	-am	.	.	.	.	.	.	1cc\	in
.	.	.	.	.	.	.	.	2f\	-ni-	.	.
=26	=26	=26	=26	=26	=26	=26	=26	=26	=26	=26	=26
1GG/	-lum	1D/	in	0G/]	.	[0d\	-gu-	1g\	-am	1.b\	se-
1GG/	mi-	1G/	se-	.	.	.	.	1d\	in	.	.
.	.	.	.	.	.	.	.	.	.	2b\	-cu-
=27	=27	=27	=27	=27	=27	=27	=27	=27	=27	=27	=27
0D\	-se-	1F/	-cu-	[0A/	-gu-	0d\]	.	1.f\	se-	1a/	-lum
.	.	1D/	-lum	.	.	.	.	.	.	1dd\	mi-
.	.	.	.	.	.	.	.	2g\	-cu-	.	.
=28	=28	=28	=28	=28	=28	=28	=28	=28	=28	=28	=28
1D\	-ri-	1r	.	0A/]	.	[0f\	-los	0a\	-lum	2dd\	-se-
.	.	.	.	.	.	.	.	.	.	2dd\	-ri-
[1F\	-cor-	1A/	mi-	.	.	.	.	.	.	1cc\	-cor-
=29	=29	=29	=29	=29	=29	=29	=29	=29	=29	=29	=29
1F\]	.	1A/	-se-	[0c\	-los	0f\]	.	1r	.	1a/	-di-
1F\	-di-	1F/	-ri-	.	.	.	.	1a\	mi-	[1cc\	-a
=30	=30	=30	=30	=30	=30	=30	=30	=30	=30	=30	=30
0C/	-a	0G/	-cor-	0c\]	.	[0e\	di-	1g\	-se-	2cc\]	.
.	.	.	.	.	.	.	.	.	.	4b\	.
.	.	.	.	.	.	.	.	.	.	4a/	.
.	.	.	.	.	.	.	.	1e\	-ri-	[1g/	.
=31	=31	=31	=31	=31	=31	=31	=31	=31	=31	=31	=31
1.E\	e-	1G/	-di-	[0B\	di-	0e\]	.	[0g\	-cor-	1g/]	.
.	.	1E/	-a	.	.	.	.	.	.	[1b\	e-
2F\	.	.	.	.	.	.	.	.	.	.	.
=32	=32	=32	=32	=32	=32	=32	=32	=32	=32	=32	=32
0G\	-jus	0r	.	0B\]	.	[0d\	-es	1g\]	.	2b\]	.
.	.	.	.	.	.	.	.	.	.	2cc\	.
.	.	.	.	.	.	.	.	1g\	-di-	[1dd\	-jus
=33	=33	=33	=33	=33	=33	=33	=33	=33	=33	=33	=33
1r	.	0D/	mi-	[0A/	-es	0d\]	.	1.f\	-a	2dd\]	.
.	.	.	.	.	.	.	.	.	.	4cc\	.
.	.	.	.	.	.	.	.	.	.	4b\	.
1D\	in	.	.	.	.	.	.	.	.	1a/	.
.	.	.	.	.	.	.	.	2e\	e-	.	.
=34	=34	=34	=34	=34	=34	=34	=34	=34	=34	=34	=34
1.D\	se-	0F/	-se-	0A/]	.	1r	.	2d\	.	1r	.
.	.	.	.	.	.	.	.	4c\	.	.	.
.	.	.	.	.	.	.	.	4B\	.	.	.
.	.	.	.	.	.	[1d\	per	1A/	-jus	[1f/	mi-
2C/	-cu-	.	.	.	.	.	.	.	.	.	.
=35	=35	=35	=35	=35	=35	=35	=35	=35	=35	=35	=35
1BB/	-lum	1D/	-ri-	1r	.	1d\]	.	1B\	quo-	2f/]	.
.	.	.	.	.	.	.	.	.	.	2g/	.
1AA/	mi-	1E/	-cor-	[1A/	per	1c\	sin-	1c\	-ni-	1a/	-se-
=36	=36	=36	=36	=36	=36	=36	=36	=36	=36	=36	=36
1D\	-se-	1F/	-di-	1A/]	.	1f\	-gu-	1d\	-am	1d/	-ri-
1E\	-ri-	[1G/	-a	1G/	sin-	[1e\	-los	1B\	in	[1g/	-cor-
=37	=37	=37	=37	=37	=37	=37	=37	=37	=37	=37	=37
1C/	-cor-	2G/]	.	1c\	-gu-	1e\]	.	1c\	se-	2g/]	.
.	.	2C/	.	.	.	.	.	.	.	2a/	-di-
[1GG/	-di-	1D/	e-	[1B\	-los	[1d\	di-	[1g\	.	2b\	-a
.	.	.	.	.	.	.	.	.	.	2cc\	.
=38	=38	=38	=38	=38	=38	=38	=38	=38	=38	=38	=38
1GG/]	.	1G/	-jus	1B\]	.	1d\]	.	1g\]	.	2dd\	e-
.	.	.	.	.	.	.	.	.	.	2b\	.
1AA/	-a	2r	.	[1A/	di-	1c\	.	1e\	-cu-	1cc\	-jus
.	.	2C/	e-	.	.	.	.	.	.	.	.
=39	=39	=39	=39	=39	=39	=39	=39	=39	=39	=39	=39
0BB/	e-	1F/	.	1A/]	.	0d\	-es	1d\	-lum	1r	.
.	.	1D/	.	1G/	.	.	.	1g\	mi-	1b\	Hec
=40	=40	=40	=40	=40	=40	=40	=40	=40	=40	=40	=40
0AA/	-jus	0E/	-jus	0A/	-es	0r	.	2.c\	-se-	1.cc\	di-
.	.	.	.	.	.	.	.	4d\	-ri-	.	.
.	.	.	.	.	.	.	.	2e\	-cor-	.	.
.	.	.	.	.	.	.	.	2c\	-di-	4b\	.
.	.	.	.	.	.	.	.	.	.	4a/	.
=41	=41	=41	=41	=41	=41	=41	=41	=41	=41	=41	=41
0r	.	1r	.	0r	.	0r	.	2e\	-a	1cc\	-es
.	.	.	.	.	.	.	.	2f\	.	.	.
.	.	[1e\	Hec	.	.	.	.	[1g\	e-	[1b\	quam
=42	=42	=42	=42	=42	=42	=42	=42	=42	=42	=42	=42
0r	.	1e\]	.	0r	.	0r	.	1g\]	.	2b\]	.
.	.	.	.	.	.	.	.	.	.	4a/	.
.	.	.	.	.	.	.	.	.	.	4g/	.
.	.	1e\	di-	.	.	.	.	1g\	-jus	2b\	fe-
.	.	.	.	.	.	.	.	.	.	2cc\	-cit
=43	=43	=43	=43	=43	=43	=43	=43	=43	=43	=43	=43
0r	.	1d\	-es	0r	.	0r	.	0r	.	1dd\	do-
.	.	1e\	quam	.	.	.	.	.	.	2b\	.
.	.	.	.	.	.	.	.	.	.	[2cc\	.
=44	=44	=44	=44	=44	=44	=44	=44	=44	=44	=44	=44
0r	.	1.c\	fe-	0r	.	0r	.	1r	.	2cc\]	.
.	.	.	.	.	.	.	.	.	.	4b\	.
.	.	.	.	.	.	.	.	.	.	4a/	.
.	.	.	.	.	.	.	.	1e\	Hec	2g/	.
.	.	2A/	-cit	.	.	.	.	.	.	[2cc\	.
=45	=45	=45	=45	=45	=45	=45	=45	=45	=45	=45	=45
0r	.	1d\	do-	0r	.	0r	.	1.f\	di-	4cc\]	.
.	.	.	.	.	.	.	.	.	.	4b\	.
.	.	.	.	.	.	.	.	.	.	1a/	.
.	.	1B\	-mi-	.	.	.	.	.	.	.	.
.	.	.	.	.	.	.	.	4e\	.	2g#/i	-mi-
.	.	.	.	.	.	.	.	4d\	.	.	.
=46	=46	=46	=46	=46	=46	=46	=46	=46	=46	=46	=46
1r	.	1A/	-nus	0r	.	0r	.	1f\	-es	0a/	-nus
[1A\	Hec	[1c\	Hec	.	.	.	.	[1e\	quam	.	.
=47	=47	=47	=47	=47	=47	=47	=47	=47	=47	=47	=47
1A\]	.	2c\]	.	0r	.	0r	.	2e\]	.	1r	.
.	.	4B\	.	.	.	.	.	4d\	.	.	.
.	.	4A/	.	.	.	.	.	4c\	.	.	.
1A\	di-	1c\	di-	.	.	.	.	2e\	fe-	1a/	Hec
.	.	.	.	.	.	.	.	2f\	.	.	.
=48	=48	=48	=48	=48	=48	=48	=48	=48	=48	=48	=48
1G\	-es	1B\	-es	0r	.	0r	.	1g\	-cit	1b\	di-
1A\	quam	[1A/	quam	.	.	.	.	2e\	do-	[1cc\	-es
.	.	.	.	.	.	.	.	[2f\	.	.	.
=49	=49	=49	=49	=49	=49	=49	=49	=49	=49	=49	=49
1.F\	fe-	2A/]	.	0r	.	0r	.	4f\]	.	2cc\]	.
.	.	.	.	.	.	.	.	4e\	.	.	.
.	.	2B\	fe-	.	.	.	.	2d\	.	2b\	quam
.	.	2c\	-cit	.	.	.	.	2c\	.	2a/	fe-
2D\	-cit	[2d\	do-	.	.	.	.	[2f\	.	4g/	-cit
.	.	.	.	.	.	.	.	.	.	4f/	.
=50	=50	=50	=50	=50	=50	=50	=50	=50	=50	=50	=50
1G\	do-	4d\]	.	0r	.	0r	.	4f\]	.	1g/	do-
.	.	4B\	.	.	.	.	.	4e\	.	.	.
.	.	1B\	.	.	.	.	.	1e\	.	.	.
1F\	-mi-	.	.	.	.	.	.	.	.	1a/	-mi-
.	.	2A/	-mi-	.	.	.	.	2d\	-mi-	.	.
=51	=51	=51	=51	=51	=51	=51	=51	=51	=51	=51	=51
1E\	-nus	1B\	-nus	0r	.	0r	.	[0e\	-nus	[0g/	-nus
[1C/	do-	1r	.	.	.	.	.	.	.	.	.
=52	=52	=52	=52	=52	=52	=52	=52	=52	=52	=52	=52
2C/]	.	1.c\	ex-	0r	.	0r	.	0e\_	.	0g/]	.
2D\	.	.	.	.	.	.	.	.	.	.	.
2E\	.	.	.	.	.	.	.	.	.	.	.
4F\	.	2B\	-ul-	.	.	.	.	.	.	.	.
4G\	.	.	.	.	.	.	.	.	.	.	.
=53	=53	=53	=53	=53	=53	=53	=53	=53	=53	=53	=53
1A\	-mi-	2A/	-te-	0r	.	0r	.	0e\]	.	0r	.
.	.	2c\	.	.	.	.	.	.	.	.	.
1E\	-nus	2B\	-mus	.	.	.	.	.	.	.	.
.	.	2G/	.	.	.	.	.	.	.	.	.
=54	=54	=54	=54	=54	=54	=54	=54	=54	=54	=54	=54
0r	.	1.A/	ex-	0r	.	0r	.	2r	.	1.cc\	ex-
.	.	.	.	.	.	.	.	2c\	ex-	.	.
.	.	.	.	.	.	.	.	1e\	-ul-	.	.
.	.	2G/	-ul-	.	.	.	.	.	.	2b\	-ul-
=55	=55	=55	=55	=55	=55	=55	=55	=55	=55	=55	=55
0r	.	1A/	-te-	0r	.	0r	.	1f\	-te-	2a/	-te-
.	.	.	.	.	.	.	.	.	.	2cc\	.
.	.	1E/	-mus	.	.	.	.	1g\	.	2b\	-mus
.	.	.	.	.	.	.	.	.	.	[2g/	et
=56	=56	=56	=56	=56	=56	=56	=56	=56	=56	=56	=56
2r	.	1.c\	ex-	0r	.	0r	.	2e\	.	2g/]	.
2C/	do-	.	.	.	.	.	.	2.g\	.	2.e/	le-
1E\	.	.	.	.	.	.	.	.	.	.	.
.	.	.	.	.	.	.	.	4f\	.	4f/	.
.	.	2B\	-ul-	.	.	.	.	4e\	.	2g/	.
.	.	.	.	.	.	.	.	4d\	.	.	.
=57	=57	=57	=57	=57	=57	=57	=57	=57	=57	=57	=57
1F\	.	2A/	-te-	0r	.	0r	.	1c\	-mus	1a/	-te-
.	.	2c\	.	.	.	.	.	.	.	.	.
1G\	.	2B\	-mus	.	.	.	.	1r	.	1d/	-mur
.	.	[2G/	ex-	.	.	.	.	.	.	.	.
=58	=58	=58	=58	=58	=58	=58	=58	=58	=58	=58	=58
2E\	.	4G/]	.	0r	.	0r	.	0r	.	1r	.
.	.	4A/	.	.	.	.	.	.	.	.	.
2.G\	.	4B\	.	.	.	.	.	.	.	.	.
.	.	4c\	.	.	.	.	.	.	.	.	.
.	.	2d\	-ul-	.	.	.	.	.	.	[1g/	ex-
4F\	.	.	.	.	.	.	.	.	.	.	.
4E\	.	[2e\	-te-	.	.	.	.	.	.	.	.
4D\	.	.	.	.	.	.	.	.	.	.	.
=59	=59	=59	=59	=59	=59	=59	=59	=59	=59	=59	=59
2C/	.	2e\]	.	0r	.	0r	.	0r	.	2g/]	.
2D\	.	1d\	.	.	.	.	.	.	.	2f/	-ul-
1E\	-mi-	.	.	.	.	.	.	.	.	2e/	-te-
.	.	2c#\i	.	.	.	.	.	.	.	2g/	-mus
=60	=60	=60	=60	=60	=60	=60	=60	=60	=60	=60	=60
1D\	-nus	1d\	-mus	0r	.	0r	.	1r	.	2f/	et
.	.	.	.	.	.	.	.	.	.	2.d/	le-
1r	.	1D/	et	.	.	.	.	[1d\	ex-	.	.
.	.	.	.	.	.	.	.	.	.	4e/	.
.	.	.	.	.	.	.	.	.	.	4f/	.
.	.	.	.	.	.	.	.	.	.	4g/	.
=61	=61	=61	=61	=61	=61	=61	=61	=61	=61	=61	=61
1r	.	1F/	le-	0r	.	0r	.	2d\]	.	1a/	-te-
.	.	.	.	.	.	.	.	2c\	-ul-	.	.
[1G\	ex-	1G/	-te-	.	.	.	.	2B\	-te-	2g/	-mur
.	.	.	.	.	.	.	.	[2d\	.	[2b\	in
=62	=62	=62	=62	=62	=62	=62	=62	=62	=62	=62	=62
2G\]	.	1D/	-mur	0r	.	0r	.	4d\]	.	2b\]	.
.	.	.	.	.	.	.	.	4c\	.	.	.
2F\	-ul-	.	.	.	.	.	.	2A/	.	1a/	e-
2E\	-te-	1r	.	.	.	.	.	1B\	.	.	.
2G\	-mus	.	.	.	.	.	.	.	.	2g#/i	.
=63	=63	=63	=63	=63	=63	=63	=63	=63	=63	=63	=63
2F\	et	1r	.	0r	.	0r	.	0A/	-mus	1a/	-a
2.D\	le-	.	.	.	.	.	.	.	.	.	.
.	.	[1d\	et	.	.	.	.	.	.	[1f/	ex-
4E\	.	.	.	.	.	.	.	.	.	.	.
4F\	.	.	.	.	.	.	.	.	.	.	.
4G\	.	.	.	.	.	.	.	.	.	.	.
=64	=64	=64	=64	=64	=64	=64	=64	=64	=64	=64	=64
1A\	-te-	2d\]	.	0r	.	0r	.	1r	.	2f/]	.
.	.	2c\	le-	.	.	.	.	.	.	2e/	-ul-
1D\	-mur	2B\	-te-	.	.	.	.	2r	.	2d/	-te-
.	.	2A/	.	.	.	.	.	[2a\	et	[2f/	-mus
=65	=65	=65	=65	=65	=65	=65	=65	=65	=65	=65	=65
1C/	in	1c\	-mur	0r	.	1r	.	2a\]	.	2f/]	.
.	.	.	.	.	.	.	.	2g\	le-	2e/	et
1D\	e-	2.F/	et	.	.	[1d\	be-	1f\	-te-	[1a/	le-
.	.	4G/	.	.	.	.	.	.	.	.	.
=66	=66	=66	=66	=66	=66	=66	=66	=66	=66	=66	=66
0AA/	.	1.A/	.	1r	.	1d\]	.	0e\	-mur	2a/]	.
.	.	.	.	.	.	.	.	.	.	2b\	-te-
.	.	.	.	[1A/	be-	1c\	-ne-	.	.	1cc\	-mur
.	.	2G/	le-	.	.	.	.	.	.	.	.
=67	=67	=67	=67	=67	=67	=67	=67	=67	=67	=67	=67
1D\	-a	2.F/	-te-	1A/]	.	1.d\	-di-	1f\	in	1a/	in
.	.	4E/	.	.	.	.	.	.	.	.	.
1GG/	le-	2D/	.	1G/	-ne-	.	.	1g\	e-	1b\	e-
.	.	[2G/	.	.	.	2e\	.	.	.	.	.
=68	=68	=68	=68	=68	=68	=68	=68	=68	=68	=68	=68
0D\	-te-	2G/]	.	1.A/	-di-	1f\	.	0d\	-a	0a/	-a
.	.	4F/	.	.	.	.	.	.	.	.	.
.	.	4E/	.	.	.	.	.	.	.	.	.
.	.	1F/	.	.	.	1d\	.	.	.	.	.
.	.	.	.	2B\	.	.	.	.	.	.	.
=69	=69	=69	=69	=69	=69	=69	=69	=69	=69	=69	=69
1C/	-mur	1G/	-mur	1c\	.	1e\	.	2r	.	0r	.
.	.	.	.	.	.	.	.	1g\	et	.	.
1D\	in	2r	.	1A/	.	[1d\	.	.	.	.	.
.	.	2D/	et	.	.	.	.	2f\	le-	.	.
=70	=70	=70	=70	=70	=70	=70	=70	=70	=70	=70	=70
1GG/	e-	1G/	le-	1B\	.	1d\]	.	1g\	-te-	1d/	et
1AA/	.	2C/	-te-	[1A/	.	1c\	-ci-	[1e\	-mur	1a/	le-
.	.	[2E/	-mur	.	.	.	.	.	.	.	.
=71	=71	=71	=71	=71	=71	=71	=71	=71	=71	=71	=71
0E\	-a	2E/]	.	1A/]	.	0B\	-mus	2e\]	.	1.b\	-te-
.	.	2F/	in	.	.	.	.	4d\	in	.	.
.	.	.	.	.	.	.	.	4c\	.	.	.
.	.	2G/	e-	1G/	-ci-	.	.	2B\	e-	.	.
.	.	4A/	.	.	.	.	.	[2e\	.	2g/	-mur
.	.	4B\	.	.	.	.	.	.	.	.	.
=72	=72	=72	=72	=72	=72	=72	=72	=72	=72	=72	=72
1r	.	1c\	.	0F/	-mus	0A/	te	2e\]	.	2a/	in
.	.	.	.	.	.	.	.	4d\	.	1cc\	e-
.	.	.	.	.	.	.	.	4c\	.	.	.
2r	.	1A/	.	.	.	.	.	1d\	-a	.	.
2D\	in	.	.	.	.	.	.	.	.	4b\	.
.	.	.	.	.	.	.	.	.	.	4a/	.
=73	=73	=73	=73	=73	=73	=73	=73	=73	=73	=73	=73
1G\	e-	1B\	-a	0E/	te	0r	.	1.e\	et	1g/	-a
2G\	-a	1r	.	.	.	.	.	.	.	1r	.
2G\	in	.	.	.	.	.	.	2d\	le-	.	.
=74	=74	=74	=74	=74	=74	=74	=74	=74	=74	=74	=74
1E\	e-	1r	.	0r	.	0r	.	2c\	-te-	1g/	in
.	.	.	.	.	.	.	.	2B\	.	.	.
1C/	-a	1E/	A	.	.	.	.	1e\	.	1cc\	e-
=75	=75	=75	=75	=75	=75	=75	=75	=75	=75	=75	=75
1r	.	1.G/	do-	0r	.	1r	.	2.d\	.	2.b\	.
.	.	.	.	.	.	.	.	4c\	.	4a/	.
1GG/	A	.	.	.	.	1d\	et	1B\	-mur	1g/	.
.	.	2G/	-mi-	.	.	.	.	.	.	.	.
=76	=76	=76	=76	=76	=76	=76	=76	=76	=76	=76	=76
1.D\	do-	1F/	-no	1r	.	1f\	lau-	1A/	in	0a/	-a
.	.	1D/	fac-	1A/	et	1f\	-da-	1d\	e-	.	.
2D\	-mi-	.	.	.	.	.	.	.	.	.	.
=77	=77	=77	=77	=77	=77	=77	=77	=77	=77	=77	=77
1C/	-no	1E/	-tum	1c\	lau-	1e\	-mus	1G/	-a	2r	.
.	.	.	.	.	.	.	.	.	.	2g/	A
1C/	fac-	1E/	est	1c\	-da-	1c\	no-	2r	.	2g/	do-
.	.	.	.	.	.	.	.	2G/	A	2g/	-mi-
=78	=78	=78	=78	=78	=78	=78	=78	=78	=78	=78	=78
1GG/	-tum	0G/	i-	1B\	-mus	0d\	-men	2G/	do-	1b\	-no
.	.	.	.	.	.	.	.	2G/	-mi-	.	.
1GG/	est	.	.	1G/	no-	.	.	1B\	-no	[1dd\	fac-
=79	=79	=79	=79	=79	=79	=79	=79	=79	=79	=79	=79
0D\	i-	0F/	-stud	0A/	-men	0f\	tu-	2r	.	2dd\]	.
.	.	.	.	.	.	.	.	1d\	fac-	2dd\	-tum
.	.	.	.	.	.	.	.	.	.	1dd\	est
.	.	.	.	.	.	.	.	2d\	-tum	.	.
=80	=80	=80	=80	=80	=80	=80	=80	=80	=80	=80	=80
0C/	-stud	1r	.	0c\	tu-	0e\	-um	1e\	est	1.g/	i-
.	.	1C/	A	.	.	.	.	1c\	i-	.	.
.	.	.	.	.	.	.	.	.	.	2a/	.
=81	=81	=81	=81	=81	=81	=81	=81	=81	=81	=81	=81
1r	.	1.G/	do-	0B\	-um	1r	.	1d\	-stud	1b\	.
1GG/	A	.	.	.	.	1d\	et	1r	.	1g/	.
.	.	2G/	-mi-	.	.	.	.	.	.	.	.
=82	=82	=82	=82	=82	=82	=82	=82	=82	=82	=82	=82
1.D\	do-	1F/	-no	1r	.	1f\	lau-	1d\	A	0a/	-stud
.	.	1D/	fac-	1A/	et	1f\	-da-	2d\	do-	.	.
2D\	-mi-	.	.	.	.	.	.	2d\	-mi-	.	.
=83	=83	=83	=83	=83	=83	=83	=83	=83	=83	=83	=83
1C/	-no	1E/	-tum	1c\	lau-	1e\	-mus	1g\	-no	2r	.
.	.	.	.	.	.	.	.	.	.	2g/	A
1C/	fac-	1E/	est	1c\	-da-	1c\	no-	2r	.	2g/	do-
.	.	.	.	.	.	.	.	2G/	A	2g/	-mi-
=84	=84	=84	=84	=84	=84	=84	=84	=84	=84	=84	=84
1GG/	-tum	0G/	i-	1B\	-mus	0d\	-men	2G/	do-	1b\	-no
.	.	.	.	.	.	.	.	2G/	-mi-	.	.
1GG/	est	.	.	1G/	no-	.	.	1B\	-no	[1dd\	fac-
=85	=85	=85	=85	=85	=85	=85	=85	=85	=85	=85	=85
0D\	i-	0F/	-stud	0A/	-men	0f\	tu-	2r	.	2dd\]	.
.	.	.	.	.	.	.	.	1d\	fac-	2dd\	-tum
.	.	.	.	.	.	.	.	.	.	1dd\	est
.	.	.	.	.	.	.	.	2d\	-tum	.	.
=86	=86	=86	=86	=86	=86	=86	=86	=86	=86	=86	=86
0C/	-stud	1r	.	0c\	tu-	0e\	-um	1e\	est	1.g/	i-
.	.	1C/	fac-	.	.	.	.	1c\	i-	.	.
.	.	.	.	.	.	.	.	.	.	2a/	.
=87	=87	=87	=87	=87	=87	=87	=87	=87	=87	=87	=87
0r	.	1G/	.	0B\	-um	1r	.	0d\	-stud	2.b\	.
.	.	.	.	.	.	.	.	.	.	4cc\	.
.	.	1D/	.	.	.	1g\	in	.	.	2dd\	.
.	.	.	.	.	.	.	.	.	.	2b\	.
=88	=88	=88	=88	=88	=88	=88	=88	=88	=88	=88	=88
0r	.	1F/	-tum	1r	.	2f\	se-	0r	.	1cc\	-stud
.	.	.	.	.	.	2e\	-cu-	.	.	.	.
.	.	1D/	est	1d\	in	1f\	-lum	.	.	[1a/	Be-
=89	=89	=89	=89	=89	=89	=89	=89	=89	=89	=89	=89
0r	.	2A/	i-	2c\	se-	2e\	in	0r	.	2a/]	.
.	.	2B\	.	2B\	-cu-	2d\	se-	.	.	2g/	-ne-
.	.	1A/	-stud	1c\	-lum	1e\	-cu-	.	.	1a/	-dic-
=90	=90	=90	=90	=90	=90	=90	=90	=90	=90	=90	=90
0D\	Be-	0r	.	2B\	in	1d\	-lum	1r	.	1.f/	-tus
.	.	.	.	2A/	se-	.	.	.	.	.	.
.	.	.	.	1B\	-cu-	1r	.	2r	.	.	.
.	.	.	.	.	.	.	.	[2f\	A	2d/	qui
=91	=91	=91	=91	=91	=91	=91	=91	=91	=91	=91	=91
1F\	-ne-	0r	.	1A/	-lum	0r	.	2f\]	.	1a/	ve-
.	.	.	.	.	.	.	.	2e\	.	.	.
1G\	-dic-	.	.	1r	.	.	.	2d\	do-	1b\	.
.	.	.	.	.	.	.	.	4c\	-mi-	.	.
.	.	.	.	.	.	.	.	4B\	.	.	.
=92	=92	=92	=92	=92	=92	=92	=92	=92	=92	=92	=92
1.A\	-tus	2r	.	0r	.	0r	.	1c\	-no	1a/	-nit
.	.	1c\	Be-	.	.	.	.	.	.	.	.
.	.	.	.	.	.	.	.	1r	.	1r	.
2D\	qui	2B\	-ne-	.	.	.	.	.	.	.	.
=93	=93	=93	=93	=93	=93	=93	=93	=93	=93	=93	=93
1F\	ve-	2A/	-dic-	0r	.	0r	.	2r	.	0r	.
.	.	4G/	.	.	.	.	.	1c\	fac-	.	.
.	.	4F/	.	.	.	.	.	.	.	.	.
2E\	.	2G/	.	.	.	.	.	.	.	.	.
[2D\	.	[2F/	.	.	.	.	.	2B\	-tum	.	.
=94	=94	=94	=94	=94	=94	=94	=94	=94	=94	=94	=94
4D\]	.	4F/]	.	0r	.	0r	.	1A/	est	0r	.
4C/	.	4E/	.	.	.	.	.	.	.	.	.
4BB/	.	4D/	.	.	.	.	.	.	.	.	.
4AA/	.	4C/	.	.	.	.	.	.	.	.	.
1BB/	.	1D/	-tus	.	.	.	.	1G#/i	i-	.	.
=95	=95	=95	=95	=95	=95	=95	=95	=95	=95	=95	=95
0AA/	-nit	2r	.	0r	.	0r	.	1A/	-stud	1r	.
.	.	1c\	Be-	.	.	.	.	.	.	.	.
.	.	.	.	.	.	.	.	2.e\	Be-	1a/	qui
.	.	2B\	-ne-	.	.	.	.	.	.	.	.
.	.	.	.	.	.	.	.	4d\	.	.	.
=96	=96	=96	=96	=96	=96	=96	=96	=96	=96	=96	=96
0r	.	2A/	-dic-	0r	.	0r	.	2e\	.	1cc\	ve-
.	.	4G/	.	.	.	.	.	2f\	-ne-	.	.
.	.	4F/	.	.	.	.	.	.	.	.	.
.	.	2G/	.	.	.	.	.	2d\	-dic-	2b\	.
.	.	2F/	.	.	.	.	.	[2f\	-tus	[2a/	.
=97	=97	=97	=97	=97	=97	=97	=97	=97	=97	=97	=97
0r	.	1c\	.	0r	.	0r	.	2f\]	.	2a/]	.
.	.	.	.	.	.	.	.	2e\	qui	2g/	.
.	.	1d\	-tus	.	.	.	.	2d\	ve-	1f/	-nit
.	.	.	.	.	.	.	.	4c\	.	.	.
.	.	.	.	.	.	.	.	4B\	.	.	.
=98	=98	=98	=98	=98	=98	=98	=98	=98	=98	=98	=98
0r	.	1r	.	0r	.	0r	.	2c\	-nit	0e/	in
.	.	.	.	.	.	.	.	2A/	qui	.	.
.	.	1A/	qui	.	.	.	.	2.c\	ve-	.	.
.	.	.	.	.	.	.	.	4d\	.	.	.
=99	=99	=99	=99	=99	=99	=99	=99	=99	=99	=99	=99
1r	.	1c\	ve-	0r	.	1r	.	4e\	.	1e/	no-
.	.	.	.	.	.	.	.	4f\	.	.	.
.	.	.	.	.	.	.	.	2.g\	.	.	.
[1D\	in	2B\	.	.	.	[1d\	in	.	.	1d/	-mi-
.	.	.	.	.	.	.	.	4f\	.	.	.
.	.	[2A/	.	.	.	.	.	[2f\	.	.	.
=100	=100	=100	=100	=100	=100	=100	=100	=100	=100	=100	=100
1D\]	.	4A/]	.	1r	.	1d\]	.	4f\]	.	1a/	-ne
.	.	4G/	.	.	.	.	.	4e\	.	.	.
.	.	4F/	.	.	.	.	.	4d\	.	.	.
.	.	4E/	.	.	.	.	.	4c\	.	.	.
1D\	no-	1F/	-nit	[1A/	in	1d\	se-	1d\	.	2r	.
.	.	.	.	.	.	.	.	.	.	2a/	in
=101	=101	=101	=101	=101	=101	=101	=101	=101	=101	=101	=101
1AA/	-mi-	1r	.	1A/]	.	0c\	-cu-	1e\	-nit	1cc\	no-
1AA/	-ne	[1E/	in	1A/	se-	.	.	2r	.	2cc\	-mi-
.	.	.	.	.	.	.	.	2c\	in	2cc\	-ne
=102	=102	=102	=102	=102	=102	=102	=102	=102	=102	=102	=102
1.C/	do-	1E/]	.	0G/	-cu-	0e\	.	1g\	no-	1.cc\	do-
.	.	1E/	no-	.	.	.	.	2g\	-mi-	.	.
2C/	-mi-	.	.	.	.	.	.	2g\	-ne	2cc\	-mi-
=103	=103	=103	=103	=103	=103	=103	=103	=103	=103	=103	=103
0GG/	-ni	1G/	-mi-	0B\	.	0d\	-lum	1.g\	do-	1dd\	-ni
.	.	1G/	-ne	.	.	.	.	.	.	2b\	.
.	.	.	.	.	.	.	.	2g\	-mi-	[2dd\	.
=104	=104	=104	=104	=104	=104	=104	=104	=104	=104	=104	=104
1r	.	1.D/	do-	0A/	-lum	1r	.	2f\	-ni	2dd\]	.
.	.	.	.	.	.	.	.	4e\	.	4cc\	.
.	.	.	.	.	.	.	.	4d\	.	4b\	.
[1D\	in	.	.	.	.	[1d\	in	2.f\	.	1a/	.
.	.	2E/	-mi-	.	.	.	.	.	.	.	.
.	.	.	.	.	.	.	.	4g\	.	.	.
=105	=105	=105	=105	=105	=105	=105	=105	=105	=105	=105	=105
1D\]	.	0F/	-ni	1r	.	1d\]	.	1a\	do-	1r	.
1D\	no-	.	.	[1A/	in	1d\	se-	1f\	-mi-	1a/	in
=106	=106	=106	=106	=106	=106	=106	=106	=106	=106	=106	=106
1AA/	-mi-	1r	.	1A/]	.	0c\	-cu-	1e\	-ni	1cc\	no-
1AA/	-ne	[1E/	in	1A/	se-	.	.	2r	.	2cc\	-mi-
.	.	.	.	.	.	.	.	2c\	in	2cc\	-ne
=107	=107	=107	=107	=107	=107	=107	=107	=107	=107	=107	=107
1.C/	do-	1E/]	.	0G/	-cu-	0e\	.	1.g\	no-	1.cc\	do-
.	.	1E/	no-	.	.	.	.	.	.	.	.
2C/	-mi-	.	.	.	.	.	.	2g\	-mi-	2cc\	-mi-
=108	=108	=108	=108	=108	=108	=108	=108	=108	=108	=108	=108
0GG/	-ni	1G/	-mi-	0B\	.	0d\	-lum	1.g\	-ne	1dd\	-ni
.	.	1G/	-ne	.	.	.	.	.	.	2b\	.
.	.	.	.	.	.	.	.	2g\	do-	[2dd\	.
=109	=109	=109	=109	=109	=109	=109	=109	=109	=109	=109	=109
1r	.	2D/	do-	0A/	-lum	1r	.	0f\	-mi-	2dd\]	.
.	.	2E/	.	.	.	.	.	.	.	4cc\	.
.	.	.	.	.	.	.	.	.	.	4b\	.
[1D\	in	2F/	.	.	.	[1d\	et	.	.	1a/	.
.	.	2G/	-mi-	.	.	.	.	.	.	.	.
=110	=110	=110	=110	=110	=110	=110	=110	=110	=110	=110	=110
1D\]	.	0A/	-ni	1r	.	1d\]	.	1f\	-ni	2r	.
.	.	.	.	.	.	.	.	.	.	1f/	in
1F\	no-	.	.	[1A/	et	1c\	in	2r	.	.	.
.	.	.	.	.	.	.	.	[2c\	do-	2g/	no-
=111	=111	=111	=111	=111	=111	=111	=111	=111	=111	=111	=111
1F\	-mi-	1r	.	1A/]	.	1A/	se-	2c\]	.	2a/	-mi-
.	.	.	.	.	.	.	.	2d\	-mi-	2f/	-ne
1E\	-ne	1E/	in	1G/	in	1B\	-cu-	[1e\	-ni	[1g/	do-
=112	=112	=112	=112	=112	=112	=112	=112	=112	=112	=112	=112
1C/	do-	1G/	no-	1E/	se-	1c\	-lum	1e\]	.	2g/]	.
.	.	.	.	.	.	.	.	.	.	2e/	.
1F\	-mi-	1D/	-mi-	1F/	-cu-	1A/	se-	1d\	do-	[1a/	.
=113	=113	=113	=113	=113	=113	=113	=113	=113	=113	=113	=113
0E\	-ni	1G/	-ne	1G/	-lum	0B\	-cu-	1e\	-mi-	2a/]	.
.	.	.	.	.	.	.	.	.	.	4g#/i	.
.	.	.	.	.	.	.	.	.	.	4f#/i	.
.	.	1G/	do-	1E/	se-	.	.	1e\	-ni	1g#/i	-mi-
=114	=114	=114	=114	=114	=114	=114	=114	=114	=114	=114	=114
0r	.	0D/	.	0F/	-cu-	[0A/l	-li	1r	.	[0a/l	-ni
.	.	.	.	.	.	.	.	1A/	do-	.	.
=115	=115	=115	=115	=115	=115	=115	=115	=115	=115	=115	=115
[0AA/	do-	1.A/	.	[0E/l	-li	0A/_	.	1.c\	.	0a/_	.
.	.	2B\	-mi-	.	.	.	.	2d\	-mi-	.	.
=116	=116	=116	=116	=116	=116	=116	=116	=116	=116	=116	=116
1AA/]	.	[0c\l	-ni	0E/_	.	0A/_	.	[0e\l	-ni	0a/_	.
1AA/	-mi-	.	.	.	.	.	.	.	.	.	.
=117	=117	=117	=117	=117	=117	=117	=117	=117	=117	=117	=117
0AA/l	-ni	0c\]	.	0E/]	.	0A/]	.	0e\]	.	0a/]	.
==	==	==	==	==	==	==	==	==	==	==	==
*-	*-	*-	*-	*-	*-	*-	*-	*-	*-	*-	*-
!!!RDF**kern: l=long note in original notation
!!!RDF**kern: i=editorial accidental
!!!RDF**kern: V=start of tuplet marker
!!!RDF**kern: Z=end of tuplet marker
!!!ENC:	Jesse Rodin 10/14/12
!!!END:	2012/10/14/
!!!EED:	Jesse Rodin
!!!EEV:	2012/11/05/
!!attribution-level@Jos: 4 (questionable)
!!!ONB:	Translated from MusicXML and edited on 2012/11/05/ by Craig Sapp
!!muse2ps: C^Mouton/Josquin?\n@{SCT}^i2I150v80,80,80,80,80,130Q16
